svgs/sharp-light/code-compare.svg

<svg xmlns="http://www.w3.org/2000/svg" viewBox="0 0 512 512"><!--! Font Awesome Pro 6.6.0 by @fontawesome - https://fontawesome.com License - https://fontawesome.com/license (Commercial License) Copyright 2024 Fonticons, Inc. --><path d="M480 32l0 96-32 0-32 0-32 0 0-96 96 0zM384 160l32 0 0 160c0 44.2-35.8 80-80 80l-70.6 0 57.4-52.2-21.5-23.7-88 80-13 11.8 13 11.8 88 80 21.5-23.7L265.4 432l70.6 0c61.9 0 112-50.1 112-112l0-160 32 0 32 0 0-32 0-96 0-32L480 0 384 0 352 0l0 32 0 96 0 32 32 0zM210.8 4.2L189.2 27.8 246.6 80 176 80C114.1 80 64 130.1 64 192l0 160-32 0L0 352l0 32 0 96 0 32 32 0 96 0 32 0 0-32 0-96 0-32-32 0-32 0 0-160c0-44.2 35.8-80 80-80l70.6 0-57.4 52.2 21.5 23.7 88-80 13-11.8-13-11.8-88-80zM64 384s0 0 0 0l32 0s0 0 0 0l32 0 0 96-96 0 0-96 32 0z"/></svg>

<svg xmlns="http://www.w3.org/2000/svg" viewBox="0 0 512 512"><!--! Font Awesome Pro 6.5.2 by @fontawesome - https://fontawesome.com License - https://fontawesome.com/license (Commercial License) Copyright 2024 Fonticons, Inc. --><path d="M480 32v96H448 416 384V32h96zM384 160h32V320c0 44.2-35.8 80-80 80H265.4l57.4-52.2-21.5-23.7-88 80-13 11.8 13 11.8 88 80 21.5-23.7L265.4 432H336c61.9 0 112-50.1 112-112V160h32 32V128 32 0H480 384 352V32v96 32h32zM210.8 4.2L189.2 27.8 246.6 80H176C114.1 80 64 130.1 64 192V352H32 0v32 96 32H32h96 32V480 384 352H128 96V192c0-44.2 35.8-80 80-80h70.6l-57.4 52.2 21.5 23.7 88-80 13-11.8-13-11.8-88-80zM64 384v0H96v0h32v96H32V384H64z"/></svg>
